X:94
C:Page 46
T:New Dash. MBe.94, The
S:Matthew Betham MS, Towcett Cumbria, 1815
O:England;Cumbria;Towcett
Z:VMP – Hugh Taylor, 2012
M:6/8
L:1/8
Q:3/8=100
R:.Jig
N:I have altered 2 crotchets to quavers and noted the changes in the abc.
K:G
D|GAG DcB|GAG FAD|GBG DcB|AcF G2:|
|:F/G/|AFD BGE|cAA dBG|AFD BGE|cAF G2:|
|:”^Cr”d|gfe dcB|cAA BGD|gfe dBB|cAF G2:|
|:”^Cr”d|dBe c2 A|FDd c2 A|dBe c2 A|FDF G2:|

